src/images/footer_icon_3.svg

<svg width="40" height="40" viewBox="0 0 40 40" fill="none" xmlns="http://www.w3.org/2000/svg">
<rect width="40" height="40" rx="20" fill="#15131D"/>
<g clip-path="url(#clip0_447_25723)">
<path d="M19.9975 22.7147C21.4965 22.7147 22.7118 21.4995 22.7118 20.0004C22.7118 18.5014 21.4965 17.2861 19.9975 17.2861C18.4984 17.2861 17.2832 18.5014 17.2832 20.0004C17.2832 21.4995 18.4984 22.7147 19.9975 22.7147Z" fill="#757185"/>
<path d="M23.3905 11.8574H16.6048C13.9862 11.8574 11.8555 13.9888 11.8555 16.6081V23.3938C11.8555 26.0124 13.9869 28.1431 16.6061 28.1431H23.3919C26.0105 28.1431 28.1412 26.0117 28.1412 23.3925V16.6067C28.1412 13.9881 26.0098 11.8574 23.3905 11.8574ZM19.9983 24.0717C17.7529 24.0717 15.9269 22.2457 15.9269 20.0003C15.9269 17.7549 17.7529 15.9289 19.9983 15.9289C22.2437 15.9289 24.0698 17.7549 24.0698 20.0003C24.0698 22.2457 22.2437 24.0717 19.9983 24.0717ZM24.7483 15.9289C24.3738 15.9289 24.0698 15.6249 24.0698 15.2503C24.0698 14.8757 24.3738 14.5717 24.7483 14.5717C25.1229 14.5717 25.4269 14.8757 25.4269 15.2503C25.4269 15.6249 25.1229 15.9289 24.7483 15.9289Z" fill="#757185"/>
</g>
<defs>
<clipPath id="clip0_447_25723">
<rect width="17.1429" height="17.1429" fill="white" transform="translate(11.4277 11.4287)"/>
</clipPath>
</defs>
</svg>

<svg xmlns="http://www.w3.org/2000/svg" width="40" height="40" fill="none"><rect width="40" height="40" fill="#15131D" rx="20"/><g fill="#757185" clip-path="url(#a)"><path d="M19.997 22.715a2.714 2.714 0 1 0 0-5.429 2.714 2.714 0 0 0 0 5.429Z"/><path d="M23.39 11.857h-6.785a4.756 4.756 0 0 0-4.75 4.751v6.786a4.756 4.756 0 0 0 4.751 4.75h6.786a4.756 4.756 0 0 0 4.75-4.752v-6.785a4.756 4.756 0 0 0-4.752-4.75Zm-3.392 12.215A4.075 4.075 0 0 1 15.927 20a4.075 4.075 0 0 1 4.071-4.071A4.076 4.076 0 0 1 24.07 20a4.076 4.076 0 0 1-4.072 4.072Zm4.75-8.143a.679.679 0 1 1 0-1.358.679.679 0 0 1 0 1.358Z"/></g><defs><clipPath id="a"><path fill="#fff" d="M11.428 11.429H28.57v17.143H11.428z"/></clipPath></defs></svg>
